src/icons/svg/discord.svg

<svg width="20" height="20" viewBox="0 0 20 20" fill="none" xmlns="http://www.w3.org/2000/svg">
<path d="M16.0077 4.40339C14.8872 3.87734 13.689 3.49503 12.4364 3.27734C12.2825 3.55642 12.1028 3.93177 11.9789 4.23037C10.6473 4.02944 9.32794 4.02944 8.02083 4.23037C7.89694 3.93177 7.71313 3.55642 7.55791 3.27734C6.30391 3.49503 5.10437 3.87875 3.9838 4.40618C1.72361 7.83311 1.11091 11.1749 1.41726 14.4693C2.91634 15.5925 4.36913 16.2748 5.7974 16.7213C6.15005 16.2344 6.46456 15.7167 6.73551 15.1711C6.21948 14.9744 5.72524 14.7316 5.25824 14.4497C5.38213 14.3577 5.50332 14.2614 5.6204 14.1623C8.46878 15.499 11.5636 15.499 14.378 14.1623C14.4964 14.2614 14.6176 14.3577 14.7401 14.4497C14.2717 14.733 13.7762 14.9758 13.2601 15.1725C13.5311 15.7167 13.8442 16.2358 14.1982 16.7227C15.6279 16.2762 17.082 15.5939 18.5811 14.4693C18.9406 10.6503 17.967 7.33915 16.0077 4.40339ZM7.12356 12.4433C6.26851 12.4433 5.56729 11.6423 5.56729 10.667C5.56729 9.69168 6.25353 8.88937 7.12356 8.88937C7.99361 8.88937 8.6948 9.69027 8.67983 10.667C8.68118 11.6423 7.99361 12.4433 7.12356 12.4433ZM12.8748 12.4433C12.0197 12.4433 11.3185 11.6423 11.3185 10.667C11.3185 9.69168 12.0048 8.88937 12.8748 8.88937C13.7448 8.88937 14.446 9.69027 14.4311 10.667C14.4311 11.6423 13.7448 12.4433 12.8748 12.4433Z" fill="#19191C"/>
</svg>

<svg xmlns="http://www.w3.org/2000/svg" width="20" height="20" fill="none"><path fill="#19191C" d="M16.008 4.403a14 14 0 0 0-3.572-1.126c-.153.28-.333.655-.457.953a13 13 0 0 0-3.958 0 10 10 0 0 0-.463-.953 14 14 0 0 0-3.574 1.13c-2.26 3.426-2.873 6.768-2.567 10.062a14.3 14.3 0 0 0 4.38 2.252q.531-.73.939-1.55a9 9 0 0 1-1.478-.721q.186-.139.362-.288c2.849 1.337 5.944 1.337 8.758 0q.178.15.362.288a9 9 0 0 1-1.48.723q.407.818.938 1.55a14.2 14.2 0 0 0 4.383-2.254c.36-3.819-.614-7.13-2.573-10.066m-8.884 8.04c-.855 0-1.557-.8-1.557-1.776 0-.975.687-1.778 1.557-1.778s1.57.801 1.556 1.778c.001.975-.686 1.776-1.556 1.776m5.75 0c-.854 0-1.556-.8-1.556-1.776 0-.975.687-1.778 1.557-1.778s1.571.801 1.556 1.778c0 .975-.686 1.776-1.556 1.776"/></svg>
